X: 10
M:6/8
L:1/8
K:G
cec TB2G | cec dBG | c3 G2 :: G |
cde fdf | ece dBG | c3 G2 G |
cde fdf | ece dBG | Tc3 G2 :|


